tools/download-figma-icons/icons/solid/gear.svg

<svg width="24" height="24" viewBox="0 0 24 24" fill="none" xmlns="http://www.w3.org/2000/svg">
<path d="M11.0024 23.25C10.9244 23.2513 10.8484 23.2249 10.788 23.1755C10.7276 23.1261 10.6866 23.0568 10.6724 22.98L10.3724 21.375C10.3465 21.2334 10.2805 21.1023 10.182 20.9972C10.0836 20.8921 9.95706 20.8176 9.81744 20.7825C8.95423 20.5612 8.12978 20.2097 7.37244 19.74C7.25308 19.6661 7.11536 19.6271 6.97494 19.6275C6.82201 19.6279 6.67284 19.675 6.54744 19.7625L5.18244 20.7C5.12565 20.7406 5.05722 20.7617 4.98744 20.76C4.90009 20.7596 4.81648 20.7245 4.75494 20.6625L3.33744 19.245C3.28809 19.1847 3.26112 19.1092 3.26112 19.0313C3.26112 18.9534 3.28809 18.8778 3.33744 18.8175L4.33494 17.37C4.40944 17.2508 4.44894 17.1131 4.44894 16.9725C4.44894 16.832 4.40944 16.6942 4.33494 16.575C3.9244 15.8467 3.61888 15.0639 3.42744 14.25C3.39362 14.109 3.31966 13.9809 3.2145 13.881C3.10935 13.7812 2.97751 13.714 2.83494 13.6875L1.02744 13.3575C0.945418 13.3414 0.872067 13.2959 0.821024 13.2297C0.769982 13.1635 0.744722 13.081 0.749941 12.9975V11.0025C0.748642 10.9245 0.775055 10.8485 0.824489 10.7881C0.873923 10.7277 0.943175 10.6867 1.01994 10.6725L2.99994 10.305C3.13648 10.2802 3.26345 10.218 3.36673 10.1253C3.47001 10.0326 3.54555 9.91311 3.58494 9.78005C3.79902 9.05097 4.10658 8.35266 4.49994 7.70255C4.57902 7.58089 4.62111 7.4389 4.62111 7.2938C4.62111 7.14869 4.57902 7.00671 4.49994 6.88505L3.29994 5.18255C3.25059 5.12224 3.22362 5.04672 3.22362 4.9688C3.22362 4.89087 3.25059 4.81535 3.29994 4.75505L4.75494 3.33755C4.81648 3.27556 4.90009 3.24049 4.98744 3.24005C5.05722 3.23842 5.12565 3.25947 5.18244 3.30005L6.96744 4.50005C7.09284 4.58758 7.24201 4.63468 7.39494 4.63505C7.52058 4.63567 7.64437 4.60473 7.75494 4.54505C8.37973 4.21627 9.04206 3.96444 9.72744 3.79505C9.86428 3.75749 9.98766 3.68188 10.0832 3.577C10.1788 3.47212 10.2427 3.34227 10.2674 3.20255L10.6649 1.03505C10.679 0.955565 10.7204 0.883521 10.7821 0.831448C10.8438 0.779375 10.9217 0.750571 11.0024 0.750046H12.9974C13.0755 0.748747 13.1515 0.77516 13.2119 0.824594C13.2723 0.874028 13.3133 0.94328 13.3274 1.02005L13.7324 3.19505C13.7572 3.33477 13.8211 3.46462 13.9166 3.5695C14.0122 3.67438 14.1356 3.74999 14.2724 3.78755C14.9578 3.95694 15.6202 4.20877 16.2449 4.53755C16.3555 4.59723 16.4793 4.62817 16.6049 4.62755C16.7571 4.62939 16.9062 4.58492 17.0324 4.50005L18.8174 3.30005C18.8742 3.25947 18.9427 3.23842 19.0124 3.24005C19.0998 3.24049 19.1834 3.27556 19.2449 3.33755L20.6624 4.75505C20.7173 4.81089 20.751 4.88408 20.7579 4.96207C20.7647 5.04006 20.7442 5.118 20.6999 5.18255L19.4999 6.88505C19.4209 7.00671 19.3788 7.14869 19.3788 7.2938C19.3788 7.4389 19.4209 7.58089 19.4999 7.70255C19.8962 8.34249 20.2087 9.0306 20.4299 9.75005C20.4693 9.88311 20.5449 10.0026 20.6482 10.0953C20.7514 10.188 20.8784 10.2502 21.0149 10.275L22.9724 10.635C23.0505 10.6506 23.1208 10.6927 23.1714 10.7543C23.222 10.8158 23.2497 10.8929 23.2499 10.9725V12.9675C23.2512 13.0456 23.2248 13.1216 23.1754 13.182C23.126 13.2424 23.0567 13.2834 22.9799 13.2975L21.1649 13.635C21.0224 13.6615 20.8905 13.7287 20.7854 13.8285C20.6802 13.9284 20.6063 14.0565 20.5724 14.1975C20.383 15.0192 20.0775 15.8096 19.6649 16.545C19.596 16.6677 19.5629 16.8073 19.5695 16.9479C19.5762 17.0885 19.6222 17.2244 19.7024 17.34L20.6999 18.7875C20.7442 18.8521 20.7647 18.93 20.7579 19.008C20.751 19.086 20.7173 19.1592 20.6624 19.215L19.2449 20.6325C19.1834 20.6945 19.0998 20.7296 19.0124 20.73C18.9427 20.7317 18.8742 20.7106 18.8174 20.67L17.4524 19.7325C17.327 19.645 17.1779 19.5979 17.0249 19.5975C16.8845 19.5971 16.7468 19.6361 16.6274 19.71C15.8701 20.1797 15.0456 20.5312 14.1824 20.7525C14.0428 20.7876 13.9163 20.8621 13.8178 20.9672C13.7194 21.0723 13.6533 21.2034 13.6274 21.345L13.3349 22.9425C13.3194 23.0206 13.2772 23.091 13.2157 23.1415C13.1542 23.1921 13.0771 23.2199 12.9974 23.22L11.0024 23.25ZM11.9999 7.50005C11.1099 7.50005 10.2399 7.76397 9.49987 8.25843C8.75985 8.7529 8.18308 9.4557 7.84248 10.278C7.50189 11.1002 7.41277 12.005 7.58641 12.878C7.76004 13.7509 8.18862 14.5527 8.81796 15.182C9.4473 15.8114 10.2491 16.2399 11.122 16.4136C11.9949 16.5872 12.8997 16.4981 13.722 16.1575C14.5443 15.8169 15.2471 15.2401 15.7416 14.5001C16.236 13.7601 16.4999 12.8901 16.4999 12C16.4999 10.8066 16.0258 9.66198 15.1819 8.81807C14.338 7.97415 13.1934 7.50005 11.9999 7.50005Z" fill="black"/>
<path d="M12.66 1.5L12.99 3.33C13.0427 3.60766 13.1727 3.8648 13.3651 4.0718C13.5575 4.2788 13.8045 4.42723 14.0775 4.5C14.7074 4.67821 15.3141 4.92994 15.885 5.25C16.1136 5.37899 16.3727 5.44378 16.635 5.4375C16.9376 5.43746 17.233 5.34596 17.4825 5.175L18.9825 4.1325L19.9125 5.0625L18.93 6.4875C18.7651 6.72644 18.6731 7.00811 18.6651 7.29833C18.6571 7.58855 18.7335 7.87485 18.885 8.1225C19.2536 8.71027 19.5388 9.34634 19.7325 10.0125C19.8101 10.28 19.9607 10.5206 20.1674 10.7074C20.374 10.8942 20.6286 11.0198 20.9025 11.07L22.5225 11.3625V12.675L21.0225 12.945C20.7341 12.9977 20.4674 13.1337 20.2555 13.3363C20.0436 13.5389 19.8956 13.7992 19.83 14.085C19.6569 14.8328 19.3792 15.5523 19.005 16.2225C18.866 16.4672 18.7986 16.746 18.8106 17.0272C18.8225 17.3084 18.9133 17.5805 19.0725 17.8125L19.8825 18.9825L18.9525 19.9125L17.865 19.1625C17.6155 18.9915 17.3201 18.9 17.0175 18.9C16.7393 18.9005 16.4666 18.9784 16.23 19.125C15.5343 19.5578 14.7751 19.8792 13.98 20.0775C13.7008 20.1477 13.4477 20.2967 13.2508 20.5068C13.054 20.717 12.9218 20.9793 12.87 21.2625L12.66 22.5H11.34L11.115 21.24C11.0633 20.9568 10.9311 20.6945 10.7342 20.4843C10.5374 20.2742 10.2843 20.1252 10.005 20.055C9.20998 19.8567 8.45081 19.5353 7.75505 19.1025C7.52938 18.9624 7.27056 18.8848 7.00505 18.8775C6.70254 18.8775 6.40711 18.969 6.15755 19.14L5.07005 19.89L4.11005 18.96L4.92005 17.79C5.07932 17.558 5.17011 17.2859 5.18204 17.0047C5.19398 16.7235 5.12658 16.4447 4.98755 16.2C4.61339 15.5298 4.33565 14.8103 4.16255 14.0625C4.0991 13.7807 3.95565 13.5233 3.74943 13.321C3.54322 13.1188 3.283 12.9804 3.00005 12.9225L1.50005 12.6525V11.34L3.12005 11.0475C3.39402 10.9972 3.6486 10.8717 3.85524 10.6849C4.06189 10.4981 4.21245 10.2575 4.29005 9.99C4.48377 9.32384 4.76899 8.68777 5.13755 8.1C5.28908 7.85235 5.36549 7.56605 5.3575 7.27583C5.34951 6.98561 5.25747 6.70394 5.09255 6.465L4.11005 5.04L5.04005 4.11L6.54005 5.1525C6.78962 5.32346 7.08504 5.41496 7.38755 5.415C7.64988 5.42128 7.90903 5.35649 8.13755 5.2275C8.70853 4.90744 9.3152 4.65571 9.94505 4.4775C10.2191 4.40417 10.4668 4.25461 10.6593 4.04619C10.8518 3.83777 10.9812 3.57903 11.0325 3.3L11.34 1.5H12.66ZM12 17.25C13.0384 17.25 14.0534 16.9421 14.9168 16.3652C15.7801 15.7883 16.4531 14.9684 16.8504 14.0091C17.2478 13.0498 17.3517 11.9942 17.1492 10.9758C16.9466 9.95738 16.4466 9.02192 15.7124 8.28769C14.9781 7.55347 14.0427 7.05345 13.0243 6.85088C12.0059 6.64831 10.9503 6.75228 9.99096 7.14964C9.03165 7.547 8.21171 8.2199 7.63483 9.08326C7.05795 9.94662 6.75005 10.9617 6.75005 12C6.75005 13.3924 7.30317 14.7277 8.28774 15.7123C9.2723 16.6969 10.6077 17.25 12 17.25ZM12.9975 3.17094e-06H11.0025C10.7475 -0.000612472 10.5003 0.0884358 10.3043 0.25158C10.1082 0.414725 9.97578 0.641586 9.93005 0.892503L9.53255 3.06C8.78847 3.25864 8.07086 3.54569 7.39505 3.915L5.61005 2.685C5.42676 2.55912 5.20989 2.49119 4.98755 2.49C4.70605 2.49324 4.43694 2.60627 4.23755 2.805L2.80505 4.2225C2.62587 4.4032 2.51574 4.641 2.49381 4.89452C2.47188 5.14805 2.53956 5.40123 2.68505 5.61L3.85505 7.3125C3.42125 8.01435 3.08325 8.77106 2.85005 9.5625L0.892547 9.9225C0.640354 9.96846 0.412501 10.102 0.249203 10.2996C0.085906 10.4972 -0.00233769 10.7462 4.71003e-05 11.0025V12.9975C-0.000568543 13.2526 0.0884797 13.4997 0.251624 13.6958C0.414769 13.8918 0.64163 14.0243 0.892547 14.07L2.70005 14.4C2.90326 15.2904 3.23419 16.1468 3.68255 16.9425L2.68505 18.39C2.53956 18.5988 2.47188 18.852 2.49381 19.1055C2.51574 19.359 2.62587 19.5968 2.80505 19.7775L4.22255 21.195C4.42194 21.3937 4.69105 21.5068 4.97255 21.51C5.19489 21.5088 5.41176 21.4409 5.59505 21.315L6.97505 20.3775C7.7991 20.8895 8.69714 21.2715 9.63755 21.51L9.93005 23.1075C9.97578 23.3584 10.1082 23.5853 10.3043 23.7484C10.5003 23.9116 10.7475 24.0006 11.0025 24H12.9975C13.2526 24.0006 13.4997 23.9116 13.6958 23.7484C13.8918 23.5853 14.0243 23.3584 14.07 23.1075L14.3625 21.51C15.303 21.2715 16.201 20.8895 17.025 20.3775L18.39 21.315C18.5733 21.4409 18.7902 21.5088 19.0125 21.51C19.294 21.5068 19.5632 21.3937 19.7625 21.195L21.18 19.7775C21.3592 19.5968 21.4694 19.359 21.4913 19.1055C21.5132 18.852 21.4455 18.5988 21.3 18.39L20.3025 16.9425C20.7561 16.1476 21.0921 15.2912 21.3 14.4L23.1075 14.07C23.3585 14.0243 23.5853 13.8918 23.7485 13.6958C23.9116 13.4997 24.0007 13.2526 24 12.9975V11.0025C24.0007 10.7475 23.9116 10.5003 23.7485 10.3043C23.5853 10.1082 23.3585 9.97574 23.1075 9.93L21.15 9.57C20.9168 8.77856 20.5788 8.02185 20.145 7.32L21.315 5.6175C21.4605 5.40873 21.5282 5.15555 21.5063 4.90202C21.4844 4.6485 21.3742 4.4107 21.195 4.23L19.7775 2.805C19.5782 2.60627 19.309 2.49324 19.0275 2.49C18.8052 2.49119 18.5883 2.55912 18.405 2.685L16.605 3.915C15.9292 3.54569 15.2116 3.25864 14.4675 3.06L14.07 0.892503C14.0243 0.641586 13.8918 0.414725 13.6958 0.25158C13.4997 0.0884358 13.2526 -0.000612472 12.9975 3.17094e-06ZM12 15.75C11.2584 15.75 10.5333 15.5301 9.91666 15.118C9.29997 14.706 8.81933 14.1203 8.5355 13.4351C8.25167 12.7498 8.17741 11.9958 8.3221 11.2684C8.4668 10.541 8.82395 9.8728 9.3484 9.34835C9.87284 8.82391 10.541 8.46675 11.2685 8.32206C11.9959 8.17736 12.7499 8.25163 13.4351 8.53545C14.1203 8.81928 14.706 9.29993 15.1181 9.91661C15.5301 10.5333 15.75 11.2583 15.75 12C15.75 12.9946 15.355 13.9484 14.6517 14.6517C13.9484 15.3549 12.9946 15.75 12 15.75Z" fill="black"/>
</svg>

<svg xmlns="http://www.w3.org/2000/svg" width="24" height="24" fill="none" viewBox="0 0 24 24"><path fill="currentColor" d="M11.002 23.25a.33.33 0 0 1-.33-.27l-.3-1.605a.75.75 0 0 0-.555-.593 8.8 8.8 0 0 1-2.445-1.042.75.75 0 0 0-.825.023l-1.365.937a.32.32 0 0 1-.195.06.33.33 0 0 1-.232-.098l-1.418-1.417a.34.34 0 0 1 0-.428l.998-1.447a.75.75 0 0 0 0-.795 9 9 0 0 1-.908-2.325.75.75 0 0 0-.592-.562l-1.808-.33a.345.345 0 0 1-.277-.36v-1.995a.33.33 0 0 1 .27-.33L3 10.305a.75.75 0 0 0 .585-.525A8.8 8.8 0 0 1 4.5 7.703a.75.75 0 0 0 0-.818L3.3 5.183a.34.34 0 0 1 0-.428l1.455-1.417a.33.33 0 0 1 .232-.098c.07-.002.139.02.195.06l1.785 1.2a.75.75 0 0 0 .788.045 8.7 8.7 0 0 1 1.972-.75.75.75 0 0 0 .54-.592l.398-2.168a.345.345 0 0 1 .337-.285h1.995a.33.33 0 0 1 .33.27l.405 2.175a.75.75 0 0 0 .54.593c.686.169 1.348.42 1.973.75.11.06.234.09.36.09a.75.75 0 0 0 .427-.128l1.785-1.2a.32.32 0 0 1 .195-.06.33.33 0 0 1 .233.098l1.417 1.417a.34.34 0 0 1 .038.428l-1.2 1.702a.75.75 0 0 0 0 .818c.396.64.709 1.328.93 2.047a.75.75 0 0 0 .585.525l1.957.36a.345.345 0 0 1 .278.338v1.994a.33.33 0 0 1-.27.33l-1.815.338a.75.75 0 0 0-.593.563 8.9 8.9 0 0 1-.907 2.347.75.75 0 0 0 .037.795l.998 1.448a.34.34 0 0 1-.038.427l-1.417 1.418a.33.33 0 0 1-.233.097.32.32 0 0 1-.195-.06l-1.365-.937a.75.75 0 0 0-.825-.023 8.8 8.8 0 0 1-2.445 1.043.75.75 0 0 0-.555.592l-.292 1.598a.344.344 0 0 1-.338.277zM12 7.5a4.5 4.5 0 1 0 0 9 4.5 4.5 0 0 0 0-9"/><path fill="currentColor" d="m12.66 1.5.33 1.83a1.5 1.5 0 0 0 1.088 1.17c.63.178 1.236.43 1.807.75.229.129.488.194.75.188a1.5 1.5 0 0 0 .848-.263l1.5-1.042.93.93-.983 1.425a1.5 1.5 0 0 0-.045 1.635 7.5 7.5 0 0 1 .848 1.89 1.5 1.5 0 0 0 1.17 1.057l1.62.293v1.312l-1.5.27a1.5 1.5 0 0 0-1.193 1.14 8.2 8.2 0 0 1-.825 2.137 1.5 1.5 0 0 0 .068 1.59l.81 1.17-.93.93-1.088-.75a1.5 1.5 0 0 0-1.635-.037 7.9 7.9 0 0 1-2.25.953 1.5 1.5 0 0 0-1.11 1.185l-.21 1.237h-1.32l-.225-1.26a1.5 1.5 0 0 0-1.11-1.185 7.9 7.9 0 0 1-2.25-.953 1.5 1.5 0 0 0-.75-.224 1.5 1.5 0 0 0-.847.262l-1.088.75-.96-.93.81-1.17a1.5 1.5 0 0 0 .068-1.59 8.2 8.2 0 0 1-.825-2.137A1.5 1.5 0 0 0 3 12.923l-1.5-.27V11.34l1.62-.293A1.5 1.5 0 0 0 4.29 9.99a7.5 7.5 0 0 1 .848-1.89 1.5 1.5 0 0 0-.045-1.635L4.11 5.04l.93-.93 1.5 1.042a1.5 1.5 0 0 0 .848.263c.262.006.521-.059.75-.187a8.3 8.3 0 0 1 1.807-.75A1.5 1.5 0 0 0 11.033 3.3l.307-1.8zM12 17.25a5.25 5.25 0 1 0 0-10.5 5.25 5.25 0 0 0 0 10.5M12.998 0h-1.995A1.09 1.09 0 0 0 9.93.893L9.533 3.06a9.7 9.7 0 0 0-2.138.855L5.61 2.685a1.1 1.1 0 0 0-.622-.195 1.08 1.08 0 0 0-.75.315L2.805 4.223a1.09 1.09 0 0 0-.12 1.387l1.17 1.702a9.3 9.3 0 0 0-1.005 2.25l-1.957.36A1.09 1.09 0 0 0 0 11.003v1.995a1.09 1.09 0 0 0 .893 1.073l1.807.33c.203.89.534 1.747.983 2.542l-.998 1.448a1.09 1.09 0 0 0 .12 1.387l1.418 1.418c.199.199.468.312.75.315.222-.001.439-.07.622-.195l1.38-.937a9.4 9.4 0 0 0 2.663 1.132l.292 1.598a1.09 1.09 0 0 0 1.072.892h1.995a1.09 1.09 0 0 0 1.073-.892l.293-1.598a9.4 9.4 0 0 0 2.662-1.133l1.365.938c.183.126.4.194.622.195a1.08 1.08 0 0 0 .75-.315l1.418-1.418a1.09 1.09 0 0 0 .12-1.387l-.998-1.448c.454-.794.79-1.65.998-2.542l1.808-.33A1.09 1.09 0 0 0 24 12.998v-1.995a1.09 1.09 0 0 0-.892-1.073l-1.958-.36a9.3 9.3 0 0 0-1.005-2.25l1.17-1.703a1.09 1.09 0 0 0-.12-1.387l-1.418-1.425a1.08 1.08 0 0 0-.75-.315 1.1 1.1 0 0 0-.622.195l-1.8 1.23a9.7 9.7 0 0 0-2.138-.855L14.07.893A1.09 1.09 0 0 0 12.998 0M12 15.75a3.75 3.75 0 1 1 0-7.5 3.75 3.75 0 0 1 0 7.5"/></svg>
